X:2141
T:Briars,The. JC.194
M:C
L:1/8
Q:120
S:John Clare,Poet,Helpstone (1793-1864)
R:Scots Measure
O:England
A:Northamptonshire
N:
N:No TS given: 2/4 adde
Z:P Headford
K:C
C2c>d efed|cAGE ADDE|C2c>d efed|cAGE GCC2:|!
|:Gc {d}cB/c/ AcFA|GEcE dD DE/F/|Gc {d}cB/c/ AcFA|Gc {e}dc/d/ ecc2:|]
W:MS includes Dance Instructions.


